packages/core/src/svgs/looks.svg

<svg width="24" height="24" viewBox="0 0 24 24" fill="none" xmlns="http://www.w3.org/2000/svg">
<g clip-path="url(#clip0_31_13350)">
<path d="M0 0H24V24H0V0Z" fill="#181B1E"/>
<path fill-rule="evenodd" clip-rule="evenodd" d="M19.7142 11.3569L15.0856 6.85693H8.91422L4.28564 11.3569L11.9999 18.8569L19.7142 11.3569ZM17.5714 11.5712C17.5714 11.5712 12.4456 3.85693 6.4285 11.5712C12.4285 19.2855 17.5714 11.5712 17.5714 11.5712Z" fill="#04CD58"/>
<path fill-rule="evenodd" clip-rule="evenodd" d="M14.5713 11.5714C14.5713 11.2337 14.5048 10.8994 14.3756 10.5874C14.2464 10.2754 14.0569 9.99193 13.8182 9.75315C13.5794 9.51437 13.2959 9.32496 12.9839 9.19574C12.672 9.06651 12.3376 9 11.9999 9C11.6622 9 11.3278 9.06651 11.0159 9.19574C10.7039 9.32496 10.4204 9.51437 10.1816 9.75315C9.94284 9.99193 9.75343 10.2754 9.6242 10.5874C9.49498 10.8994 9.42847 11.2337 9.42847 11.5714C9.42847 12.2534 9.69938 12.9075 10.1816 13.3897C10.6639 13.8719 11.3179 14.1429 11.9999 14.1429C12.6819 14.1429 13.3359 13.8719 13.8182 13.3897C14.3004 12.9075 14.5713 12.2534 14.5713 11.5714ZM13.2856 11.5714C13.2856 11.2304 13.1502 10.9034 12.909 10.6623C12.6679 10.4212 12.3409 10.2857 11.9999 10.2857C11.2842 10.2857 10.7142 10.8557 10.7142 11.5714C10.7142 12.2871 11.2842 12.8571 11.9999 12.8571C12.7156 12.8571 13.2856 12.2871 13.2856 11.5714Z" fill="#F0F3FA"/>
</g>
<defs>
<clipPath id="clip0_31_13350">
<rect width="24" height="24" fill="white"/>
</clipPath>
</defs>
</svg>

<svg xmlns="http://www.w3.org/2000/svg" width="24" height="24" fill="none" viewBox="0 0 24 24"><g clip-path="url(#a)"><path fill="#181B1E" d="M0 0h24v24H0z"/><path fill="#04CD58" fill-rule="evenodd" d="m19.714 11.357-4.628-4.5H8.914l-4.628 4.5 7.714 7.5zm-2.143.214s-5.125-7.714-11.143 0c6 7.714 11.143 0 11.143 0" clip-rule="evenodd"/><path fill="#F0F3FA" fill-rule="evenodd" d="M14.571 11.571a2.572 2.572 0 1 0-5.143 0 2.572 2.572 0 0 0 5.143 0m-1.285 0A1.285 1.285 0 0 0 12 10.286c-.716 0-1.286.57-1.286 1.285 0 .716.57 1.286 1.286 1.286s1.286-.57 1.286-1.286" clip-rule="evenodd"/></g><defs><clipPath id="a"><path fill="#fff" d="M0 0h24v24H0z"/></clipPath></defs></svg>
